!!!ONB: MCCC : ILB0169_02 : Extracted Monophonic Melody
!!!COM: Beethoven, Ludwig van
!!!OPR: Piano Sonata No.8
!!!OMV: 2
!!!SCT: Op.13
!!!ODT: 1798///
**kern
*thru
*staff1
*Ipiano
*clefF4
*k[b-e-a-d-]
*A-:
*M2/4
*MM40
=1
4c
4B-
=2
4.e-
8d-
=3
8c
8e-
8a-
8b-
=4
4.e-
8e
=5
4f
8.B-
32c
32d-
=6
4e-
4A
=7
4d-
16c
16B-
16A-
16G
=8
4B-
8A-
24c
24e-
24a-
=9
4cc
4b-
=10
4.ee-
8dd-
=11
8cc
8ee-
8aa-
8bb-
=12
4.ee-
8ee
=13
4ff
8.b-
32cc
32dd-
=14
4ee-
4a
=15
4dd-
16cc
16b-
16a-
16g
=16
4b-
8a-
8r
=17
[4cc
16cc]
16aa-
16gg
16ff
=18
[4ccc
16ccc]
16aa-
16gg
16ff
=19
[4cc
16cc]
16aa-
16gg
16ff
=20
8ee-
[8dd
8dd]
16.ff
32ee-
=21
4ee-
8.f
32a-
32cc
=22
32cc
32b-
16gg[
16gg]
32ff
32ee-
32dd
32cc
32b-
32a
32cc
32b-
32a-
32f
=23
8e-
16r
16B-
16G
16B-
16G
16E-
=24
8A-
8A-
8A-
8A-
=25
8G
8r
8r
16.B-
32e-
=26
16e-
16d
16d
16c
16c
16c-
16c-
16B-
=27
2B-[
=28
2B-]
=29
4c
4B-
=30
4.e-
8d-
=31
8c
8e-
8a-
8b-
=32
4.e-
8e
=33
4f
8.B-
32c
32d-
=34
4e-
4A
=35
4d-
16c
16B-
16A-
16G
=36
4B-
8A-
8e-
=37
8a-
8cc-
8b-
8a-
=38
8g
8dd-
24e-
24e-
24e-
24e-
24e-
24e-
=39
8a-
8cc-
8b-
8a-
=40
8a-
8g
24e-
24e-
24e-
24e-
24e-
24e-
=41
8a-
8cc-
8b-
8a-
=42
[8ff#
24ff#]
24dd#
24b
[8bb
24bb]
24gg#
24ee
=43
[8eee
24eee]
24ccc#
24aa#
8bb
8d#
=44
24e
24B
24B
24B
24B
24B
24B
24B
24B
24B
24B
24B
=45
8e
8g#
8f#
8e
=46
8d#
8a
24B
24B
24B
24B
24B
24B
=47
8e
8g#
8e
8d#
=48
4d
24c-
24c-
24c-
8d
=49
4d
24c-
24c-
24c-
8d
=50
4.d-
8d-
=51
4c
4B-
=52
4.e-
8d-
=53
8c
8e-
8a-
8b-
=54
4.e-
8e
=55
4f
8.B-
32c
32d-
=56
4e-
4A
=57
4d-
24d-
24c
24B-
24B-
24A-
24G
=58
4B-
8A-
24c
24e-
24a-
=59
4cc
4b-
=60
4.ee-
8dd-
=61
8cc
8ee-
8aa-
8bb-
=62
4.ee-
8ee
=63
4ff
8.b-
32cc
32dd-
=64
4ee-
4a
=65
4dd-
24dd-
24cc
24b-
24b-
24a-
24g
=66
8a-
8r
8r
16.ee-
32ee
=67
[8ff
24ff]
24ee-
24dd-
24cc
24b-
24a-
32g
32dd-
32b-
32g
=68
16.a-
32cc
8e-
8r
16.eee-
32eee
=69
[8fff
24fff]
24eee-
24ddd-
24ccc
24bb-
24aa-
24gg
24ddd-
24gg
=70
8aa-
8r
24dd-
24cc
24dd-
24ff
24ee-
24dd-
=71
8cc
8r
24b-
24a
24b-
24dd-
24cc
24b-
=72
8a-
8r
24B-
24A
24B-
24d-
24c
24B-
=73
16A-
16r
16A-
16r
4A-
==
*-
